src/assets/svg/success.svg

<svg width="66" height="66" viewBox="0 0 66 66" fill="none" xmlns="http://www.w3.org/2000/svg">
<circle cx="33" cy="33" r="30.5" fill="white" stroke="#A7F522" stroke-width="5"/>
<circle cx="33" cy="33" r="22" fill="#A7F522"/>
<rect x="44.7227" y="18.2422" width="12" height="4.44659" transform="rotate(-33.7041 44.7227 18.2422)" fill="#A7F522"/>
<path d="M29.8177 49C33.7449 43.5299 37.8082 38.6742 40.8277 35.2561C42.6103 33.2383 44.2845 31.403 45.8869 29.752C47.3372 28.2577 48.7751 26.8875 50.1573 25.5983C52.5134 23.4005 55.2679 20.9658 57 19.9231L54.7879 17C51.5807 19 48.4934 21.1362 46.1097 22.7778C44.7206 23.7345 43.4316 24.6541 42.2169 25.5299C41.0135 26.3977 39.771 27.3506 38.461 28.3503C36.1866 30.0857 33.2645 32.4185 30.435 34.8291L23.3348 28.1451L15 34.6924L29.8177 49Z" fill="white"/>
</svg>

<svg width="66" height="66" fill="none" xmlns="http://www.w3.org/2000/svg"><circle cx="33" cy="33" r="30.5" fill="#fff" stroke="#A7F522" stroke-width="5"/><circle cx="33" cy="33" r="22" fill="#A7F522"/><path fill="#A7F522" d="m44.723 18.242 9.983-6.659 2.467 3.7-9.983 6.658z"/><path d="M29.818 49c3.927-5.47 7.99-10.326 11.01-13.744 1.782-2.018 3.456-3.853 5.059-5.504a119 119 0 0 1 4.27-4.154c2.356-2.197 5.11-4.632 6.843-5.675L54.788 17c-3.207 2-6.295 4.136-8.678 5.778-1.39.957-2.678 1.876-3.893 2.752-1.203.868-2.446 1.82-3.756 2.82a200 200 0 0 0-8.026 6.48l-7.1-6.685L15 34.692z" fill="#fff"/></svg>
